X: 22470
T: Lady Athenry
R: jig
M: 6/8
K: Gmajor
B3 G2 B|d2 G GFE|A2 G F2 E|D2 d ded|
BcB A2 G|F2 A d2 A|B3 G2 B|A2 F D3|
B,2 C D2 E|D2 G FGA|B2 E A2 F|G2 E CGE|
d2 e dBG|c2 E A2 F|D2 G G2 F|G3 G2||
B/c/|d2 B G2 e|d2 c B2 c|d2 g f2 e|f2 d a2 f|
d2 g gbg|fag f2 e|d2 f faf|gfe dcB|
c3 c2 d|efg efg|f2 d d2 e|fga fga|
gfe dcB|cBA ABc|d2 D A2 F|G3 G2||

